X:1
T:Vid Lajksjön
R:Vals
S:Av Sten Nylund, Viksjö, Ångermanland
O:Viksjö, Ångermanland
N:Komponerad vid Lajksjön, Dorotea. Understämmor av Pe-O Fors.  
Z:till abc Eva Zwahlen 2010-03-21
Q:1/4=155
M:3/4
L:1/8
K:G
%
V:1
z2 z (B, DG)|:B2 B3 D|G3 (B, DG)|A2 A3 C| E6| F2 F3 E|D2 D3 c|B2 B3 D|G3 (B, DG)|B2 B3 D|G3 (B, DG)|A2 A3 C|E4 E2|F2 (3EFE D2|(3cdc B2 A2|1G6-|G2 z (B, DG):|2G6-|G4 z2|:B2 B2 B2|B2 e3 B| d2 c3 B| c6|A2 A3 F| A2 d3 A|c2 B3 G| B6|D2 G2 A2| B2 d3 B|c2 c3 C|E4 E2| F2 (3EFE D2| c2 (3BcB A2|G6-|G4 z2:|  
%
V:2
I:repbra 0
z2 z (B, DG)|:"G"G2 D3 B,|D3 B, DG|"Am" E2 C3 A,| C6|"D" D2 D3 C|"D7" A,2 A,3 F|"G"G2 D3 B,| D3 B, DG| G2 D3 B,| D3 B, DG|"Am"E2 C3 A,| C4 C2|"D" D2 (3CDC B,2 |"D7"(3ABA G2 F2|1"G" D6-|D2z B, DG:|2"G" D6-|D4 z2|:"G"B2 A2 G2|"E" G2 B3 G|"Am" B2 A3 G| A6|"D"F2 F3 D|F2 A3 F|"G"A2 G3 D|G6|"G" B,2 D2 D2 | G2 B3 G|"C"G2 E3 C |"Am" A,4 A,2|"D" D2 (3CDC B,2|"D7" (3ABA G2 F2|"G" D6-|D4 z2:|

